dist/intermediate-svg/clock.svg

<?xml version="1.0" encoding="utf-8"?><svg width="14" height="14" fill="none" xmlns="http://www.w3.org/2000/svg" viewBox="0 0 14 14"><path d="M8.18033 4.25058V6.5796C8.49743 6.74209 8.70883 7.12124 8.70883 7.50038C8.70883 7.60871 8.70883 7.66287 8.65598 7.7712L9.50158 8.63782C9.71298 8.85447 9.71298 9.17945 9.50158 9.3961C9.29018 9.61276 8.97308 9.61276 8.76168 9.3961L7.91608 8.52949C7.81038 8.52949 7.75753 8.58365 7.65183 8.58365C7.07049 8.58365 6.59484 8.09618 6.59484 7.50038C6.59484 7.12124 6.80624 6.74209 7.12333 6.5796V4.25058C7.12333 3.9256 7.33473 3.70894 7.65183 3.70894C7.96893 3.70894 8.18033 3.9256 8.18033 4.25058ZM7.59898 1.00077C4.32229 1.05493 1.62696 3.65478 1.36271 6.95875H0.252863C0.0414638 6.95875 -0.0642326 7.22956 0.041467 7.39205L1.89121 10.1544C1.99691 10.3169 2.2083 10.3169 2.314 10.1544L4.16374 7.39205C4.26944 7.22956 4.16375 6.95875 3.95235 6.95875H2.89535C3.1596 4.57556 5.11504 2.67984 7.54613 2.62567C10.1358 2.57151 12.3026 4.73805 12.4083 7.3379C12.514 10.1002 10.3472 12.3751 7.65183 12.3751C6.38344 12.3751 5.22074 11.8876 4.37514 11.021C4.16374 10.8044 3.74094 10.8044 3.58239 11.1293L3.26531 11.5626C3.10676 11.7793 3.1596 12.1043 3.371 12.2668C4.48084 13.35 6.01349 14 7.65183 14C11.2456 14 14.1524 10.9668 13.9938 7.22957C13.8353 3.7631 10.9814 0.946605 7.59898 1.00077Z" fill="#fff"/><path d="M8.18033 3.25058V5.5796C8.49743 5.74209 8.70883 6.12124 8.70883 6.50038C8.70883 6.60871 8.70883 6.66287 8.65598 6.7712L9.50158 7.63782C9.71298 7.85447 9.71298 8.17945 9.50158 8.3961C9.29018 8.61276 8.97308 8.61276 8.76168 8.3961L7.91608 7.52949C7.81038 7.52949 7.75753 7.58365 7.65183 7.58365C7.07049 7.58365 6.59484 7.09618 6.59484 6.50038C6.59484 6.12124 6.80624 5.74209 7.12333 5.5796V3.25058C7.12333 2.9256 7.33473 2.70894 7.65183 2.70894C7.96893 2.70894 8.18033 2.9256 8.18033 3.25058ZM7.59898 0.000768339C4.32229 0.0549318 1.62696 2.65478 1.36271 5.95875H0.252863C0.0414638 5.95875 -0.0642326 6.22956 0.041467 6.39205L1.89121 9.15439C1.99691 9.31688 2.2083 9.31688 2.314 9.15439L4.16374 6.39205C4.26944 6.22956 4.16375 5.95875 3.95235 5.95875H2.89535C3.1596 3.57556 5.11504 1.67984 7.54613 1.62567C10.1358 1.57151 12.3026 3.73805 12.4083 6.3379C12.514 9.10024 10.3472 11.3751 7.65183 11.3751C6.38344 11.3751 5.22074 10.8876 4.37514 10.021C4.16374 9.80436 3.74094 9.80436 3.58239 10.1293L3.26531 10.5626C3.10676 10.7793 3.1596 11.1043 3.371 11.2668C4.48084 12.35 6.01349 13 7.65183 13C11.2456 13 14.1524 9.96685 13.9938 6.22957C13.8353 2.7631 10.9814 -0.0533951 7.59898 0.000768339Z" fill="#1E6393"/></svg>

<?xml version="1.0" encoding="utf-8"?><svg width="14" height="14" fill="none" xmlns="http://www.w3.org/2000/svg" viewBox="0 0 14 14"><path d="M8.18 4.25v2.33c.317.162.529.541.529.92 0 .109 0 .163-.053.271l.846.867a.533.533 0 010 .758.502.502 0 01-.74 0l-.846-.867c-.106 0-.158.055-.264.055-.582 0-1.057-.488-1.057-1.084 0-.379.211-.758.528-.92V4.25c0-.324.212-.541.529-.541.317 0 .528.217.528.542zM7.6 1c-3.277.055-5.972 2.655-6.236 5.959H.253c-.212 0-.317.27-.212.433l1.85 2.762a.244.244 0 00.423 0l1.85-2.762c.105-.162 0-.433-.212-.433H2.895c.265-2.383 2.22-4.28 4.651-4.333 2.59-.054 4.757 2.112 4.862 4.712.106 2.762-2.06 5.037-4.756 5.037-1.269 0-2.431-.487-3.277-1.354-.211-.217-.634-.217-.793.108l-.317.434a.522.522 0 00.106.704A6.138 6.138 0 007.651 14c3.595 0 6.501-3.033 6.343-6.77C13.835 3.763 10.98.947 7.599 1z" fill="#fff"/><path d="M8.18 3.25v2.33c.317.162.529.541.529.92 0 .109 0 .163-.053.271l.846.867a.533.533 0 010 .758.502.502 0 01-.74 0l-.846-.867c-.106 0-.158.055-.264.055-.582 0-1.057-.488-1.057-1.084 0-.379.211-.758.528-.92V3.25c0-.324.212-.541.529-.541.317 0 .528.217.528.542zM7.6 0C4.322.056 1.627 2.656 1.363 5.96H.253c-.212 0-.317.27-.212.433l1.85 2.762a.244.244 0 00.423 0l1.85-2.762c.105-.162 0-.433-.212-.433H2.895c.265-2.383 2.22-4.28 4.651-4.333 2.59-.054 4.757 2.112 4.862 4.712.106 2.762-2.06 5.037-4.756 5.037-1.269 0-2.431-.487-3.277-1.354-.211-.217-.634-.217-.793.108l-.317.434a.522.522 0 00.106.704A6.138 6.138 0 007.651 13c3.595 0 6.501-3.033 6.343-6.77C13.835 2.763 10.98-.053 7.599 0z" fill="#1E6393"/></svg>
